!!!!SEGMENT: pl-kk--kk-i-625--001-002_lisinski-karol--vesperae-ex-a-confitebor.krn
!!!cenid: 18xx:4601
!!!COM: Lisiński, Karol
!!!COM-rismID: pe50053612
!!!CDT:
!!!CNT: Polish
!!!OPR: Vesperae ex A
!!!OTL: Confitebor
!!!OMV: 002
!!!PDT:
!!!AGN: Sacred; Vespers
!!!YEC: Copyright 2022 Narodowy Instytut Fryderyka Chopina (https://polishscores.org)
!!!YEM: License CC-BY-4.0 (https://creativecommons.org/licenses/by/4.0)
!!!SMS-siglum: PL-Kk
!!!SMS-shelfmark: Kk.I.625
!!!SMS-variant: Violino Primo: Kk.I.625: 26 ; Violino Secundo: Kk.I.625: 36
!!!SMS-altvar: Violino Primo: Kk.I.625: 21 ; Violino Secundo: Kk.I.625: 31
!!!SMS-shelfwork: 001-002 M
!!!NIFC-rismSourceID: 1001210166
!!!NIFC-rismChildID: 1001210166
!!!NIFC-islandoraID: pl-kk:20012
!!!URL-pdf-islandora: https://repozytorium.nifc.pl/islandora/object/pl-kk:20012/datastream/PDF/view
!!!URL-scan: https://polish.musicsources.pl/pl/lokalizacje/galeria/rekopisy/7259/2 @EN{Scan on Polish Music Sources Website} @PL{Skany w portalu Dziedzictwo Muzyki Polskiej w otwartym dostępie}
!!!IIIF:
!!!ONB-nifc: UWAGA: Części Nieszporów: 1. Dixit Dominus, 2. Confitebor, 3. Beatus vir, 4. Laudate pueri, 5. In exitu, 6. Magnificat. Gloria wchodzi w ramy powyższych części. Uwaga: Partia Organo na skanach 44-46 i 2. Uwaga: Violino Primo i Secondo wg drugich odpisów spisanych ręką tą samą co reszta partii (s. 25-28 i 35-38). Proszę uzupełnić pola SMS:variant i SMS:altvar.
!!!AIN: 1 alto 1 bass 1 canto 2 clrno 1 organ 1 tenor 2 violn
!!!key:
**kern	**fba	**kern	**kern	**kern	**text	**kern	**text	**kern	**text	**kern	**text	**kern	**kern
*part9	*	*part8	*part7	*part6	*part6	*part5	*part5	*part4	*part4	*part3	*part3	*part2	*part1
*staff9	*	*staff8	*staff7	*staff6	*staff6	*staff5	*staff5	*staff4	*staff4	*staff3	*staff3	*staff2	*staff1
*I"Organo	*	*I"Violino Secundo	*I"Violino Primo	*I"Baſso	*	*I"Tenore	*	*I"Alto	*	*I"Canto	*	*I"Clarino Secundo ex A	*I"Clarino Primo ex A
*I'org	*	*I'vl 2	*I'vl 1	*I'B	*	*I'T	*	*I'A	*	*I'C	*	*I'cln 2 in A	*I'cln 1 in A
*clefF4	*	*clefG2	*clefG2	*clefF4	*	*clefC4	*	*clefC3	*	*clefC1	*	*clefG2	*clefG2
*	*	*	*	*	*	*	*	*	*	*	*	*ITrd2c3	*ITrd2c3
*Iorgan	*	*Ivioln	*Ivioln	*Ibass	*	*Itenor	*	*Ialto	*	*Icanto	*	*Iclrno	*Iclrno
*ICklav	*	*ICstr	*ICstr	*ICvox	*	*ICvox	*	*ICvox	*	*ICvox	*	*ICbras	*ICbras
*k[f#c#g#]	*	*k[f#c#g#]	*k[f#c#g#]	*k[f#c#g#]	*	*k[f#c#g#]	*	*k[f#c#g#]	*	*k[f#c#g#]	*	*k[f#c#g#]	*k[f#c#g#]
*A:	*	*A:	*A:	*A:	*	*A:	*	*A:	*	*A:	*	*A:	*A:
*M4/4	*	*M4/4	*M4/4	*M4/4	*	*M4/4	*	*M4/4	*	*M4/4	*	*M4/4	*M4/4
*met(c)	*	*met(c)	*met(c)	*met(c)	*	*met(c)	*	*met(c)	*	*met(c)	*	*met(c)	*met(c)
=1	=1	=1	=1	=1	=1	=1	=1	=1	=1	=1	=1	=1	=1
!	!	!	!	!	!	!	!	!	!	!	!	!LO:TX:b:t=Confitebor tibi Domine	!LO:TX:b:t=Confitebor tibi Domine
!LO:TX:b:t=Confitebor	!	!LO:TX:b:t=Confitebor	!LO:TX:b:t=Confitebor	!	!	!	!	!	!	!LO:TX:a:t=Poco vivace	!	!LO:TX:a:t=Ex A	!LO:TX:a:t=Ex A
4A\	.	4r	4r	2r	.	4r	.	4r	.	4r	.	4r	4r
4r	.	8cc#\L	8a\L	.	.	8c#\	Con-	8e\	Con-	8a\	Con-	8c#/L	8a\L
.	.	8b\J	8b\	.	.	8B\	-fi-	8g#\	-fi-	8b\	-fi-	8e/J	8b\J
8A\L	.	8a/L	8cc#\	8A\	Con-	8A/	-te-	8e\	-te-	8cc#\	-te-	8a\L	8cc#\L
8B\	6\	8a/	8dd\J	8B\	-fi-	8A/	-bor	8g#\	-bor	8dd\	-bor	8b\	8dd\
8c#\	6	8a/	8ee\L	16c#\	-te-	8A/	ti-	8e\	ti-	8ee\	ti-	8cc#\	8ee\
.	.	.	.	16c#\	-bor	.	.	.	.	.	.	.	.
8d\J	.	8a/J	8ff#\J	16d\	ti-	8A/	-bi	8d\	-bi	8ff#\	-bi	8dd\J	8ff#\J
.	.	.	.	16d\	-bi	.	.	.	.	.	.	.	.
=2	=2	=2	=2	=2	=2	=2	=2	=2	=2	=2	=2	=2	=2
!	!	!	!	!	!	!	!	!	!	!	!	!LO:TX:t=P:problem:mixed beam	!
8c#\L	.	8a\L	8.ee\L	8c#\	Do-	8A/	Do-	8e\	Do-	8.ee\	Do-	8cc#\L	8ee\L
8B\	6	8dd\	.	8B\	-mi-	8d\	-mi-	8g#\	-mi-	.	.	8c#/	8a\
.	.	.	16a\K	.	.	.	.	.	.	16a\	-mi-	.	.
8c#\	.	8cc#\	8a\	8c#\	-ne	8c#\	-ne	8a\	-ne	8a\	-ne	8c#/	8a\
8A\J	.	8cc#\J	8ee\J	8A\	in	8c#\	in	8a\	in	8ee\	in	8cc#\J	8ee\J
8B\L	-3	8f#/L	8dd\L	8B\	to-	8d\	to-	8f#\	to-	8dd\	to-	8b\L	8dd\L
8A\	.	8f#/	8cc#\	8A\	-to	8e\	-to	8f#\	-to	8cc#\	-to	8a\	8cc#\
8G#\	6 5	8e/	8dd\	8G#\	cor-	8d\	cor-	8e\	cor-	8dd\	cor-	8b\	8dd\
8E\J	.	8g#/J	8ee\J	8E\	-de	8d\	-de	(8e\	-de	8ee\	-de	8cc#\J	8ee\J
!	!	!	!	!LO:LB:g=original	!	!	!	!LO:PB:g=original	!	!	!	!	!
=3	=3	=3	=3	=3	=3	=3	=3	=3	=3	=3	=3	=3	=3
!	!	!	!	!	!	!	!	!	!	!	!	!LO:TX:t=P:problem:mixed beam	!
8A\L	.	8e/L	8cc#\L	8A\	me-	8c#\	me-	8e\)	me-	8cc#\	me-	8a\L	8cc#\L
16A\L	.	16d/L	8a\	8A\	-o	8c#\	-o	8e\	-o	8a\	-o	8c#/J	8a\J
16B\JJ	.	16e/JJ	.	.	.	.	.	.	.	.	.	.	.
!	!	!	!	!	!	!	!	!	!	!LO:LB:g=original	!	!	!
8c#\L	6	8e/L	8a\	8r	.	8r	.	8r	.	8r	.	8r	8r
!	!	!	!	!	!	!LO:LB:g=original	!	!	!	!	!	!	!
16c#\L	.	16e/L	16a\L	16A\	in	16c#\	in	16e\	in	16a\	in	16c#/LL	16a\LL
16B\JJ	.	16d/JJ	16b\JJ	16A\	con-	16c#\	con-	16e\	con-	16b\	con-	16e/JJ	16b\JJ
8A\L	.	8e/L	8cc#\L	8A\	-si-	8e\	-si-	8a\	-si-	8cc#\	-si-	8a\L	8cc#\L
8B\	6\	8g#/J	8dd\	8B\	-li-	8d\	-li-	8g#\	-li-	8dd\	-li-	8b\	8dd\
!	!	!LO:LB:g=original	!	!	!	!	!	!	!	!	!	!	!
8c#\	6	8e/L	8ee\	8c#\	-o	8c#\	-o	8e\	-o	8ee\	-o	8cc#\	8ee\
8d\J	.	8a/J	8ff#\J	8d\	jus-	8B\	jus-	8d\	jus-	8ff#\	jus-	8dd\J	8ff#\J
=4	=4	=4	=4	=4	=4	=4	=4	=4	=4	=4	=4	=4	=4
!	!	!	!	!	!	!	!	!	!	!	!	!LO:TX:t=P:problem:mixed beam	!
8c#\L	.	8a\L	8ee\L	8c#\	-to-	8A\	-tuo-	8e\	-to-	8ee\	-to-	8cc#\L	8ee\L
16c#\L	.	16ee\L	8a\	8c#\	-rum	8A\	-rum	8e\	-rum	8a\	-rum	8c#/J	8a\J
16B\JJ	.	16dd\JJ	.	.	.	.	.	.	.	.	.	.	.
8c#\L	6	8ee\L	8a\	8r	.	8r	.	8r	.	8r	.	8r	8r
8A\J	6	8cc#\J	8ee\J	8A\	et	8c#\	et	8e\	et	8a\	et	8c#/	8a\
!	!	!	!LO:LB:g=original	!	!	!	!	!	!	!	!	!LO:LB:g=original	!LO:LB:g=original
8d\L	6	8f#/L	8b\L	8d\	con-	8B\	con-	8f#\	con-	8b\	con-	8e/L	8b\L
16c#\L	.	8e/	8a\	8c#\	-gre-	8c#\	-gre-	8e\	-gre-	8a\	-gre-	8c#/	8a\
16d\JJ	.	.	.	.	.	.	.	.	.	.	.	.	.
4ryy	.	8f#/	8b\	8d\	-ga-	8B\	-ga-	8f#\	-ga-	8b\	-ga-	8e/	8b\
.	.	16e/L	8a\J	16c#\LL	-ti-	16c#\LL	-ti-	16e\LL	-ti-	8a\	-ti-	8c#/J	8a\J
.	.	16f#/JJ	.	16d\JJ	.	16B\JJ	.	16f#\JJ	.	.	.	.	.
!LO:LB:g=original	!	!	!	!	!	!	!	!	!	!	!	!	!
=5	=5	=5	=5	=5	=5	=5	=5	=5	=5	=5	=5	=5	=5
!LO:TX:t=P:problem:mixed beam	!	!	!	!	!	!	!	!	!	!	!	!	!
*	*	*	*	*	*	*	*	*2\right	*	*	*	*	*
8e\L	4 3	8e/L	4a/	8e\L	-o-	(4A\	-o-	2e\	-o-	4e/	-o-	4.e/	4.b\
8d\	.	8f#/J	.	8d\	.	.	.	.	.	.	.	.	.
8e\	.	4e/	4g#t/	8e\	.	4B\)	.	.	.	4g#/	.	.	.
8E/J	.	.	.	8E\J	.	.	.	.	.	.	.	8e/	8b\
!	!	!	!	!LO:PB:g=original	!	!	!	!	!	!	!	!	!
8A\L	.	8e/L	8a/	8A\	-ne	8c#\	-ne	8e\	-ne	(8a\	-ne	8c#/	8a\
8A\	.	8a/	4cc#\	4A\	ma-	4e\	ma-	4a\	ma-	4cc#\)	ma-	8r	8r
8c#\	.	8a/	.	.	.	.	.	.	.	.	.	4r	4r
8A\J	.	8a/J	8cc#\	8A\	-gna	8e\	-gna	8a\	-gna	8cc#\	-gna	.	.
!	!	!	!	!	!	!LO:LB:g=original	!	!LO:LB:g=original	!	!LO:LB:g=original	!	!	!
=6	=6	=6	=6	=6	=6	=6	=6	=6	=6	=6	=6	=6	=6
8E\L	6 4	8a/L	8cc#\L	8E\	o-	8e\	o-	8a\	o-	8cc#\	o-	00r	00r
8E\	5	8g#/	8b\	16E\	-pe-	16e\	-pe-	16g#\	-pe-	16b\	-pe-	.	.
.	.	.	.	16E\	-ra	16e\	-ra	16g#\	-ra	16b\	-ra	.	.
8G#\	6	8b/	8b\	8r	.	8r	.	8r	.	8r	.	.	.
8E\J	.	8b/J	8gg#\J	8E\L	Do-	8e\L	Do-	4g#\	Do-	4b\	Do-	.	.
8F#\L	9	8b/L	8gg#\L	8F#\J	.	8c#\J	.	.	.	.	.	.	.
8F#\	8	8a/	8ff#\	16F#\	-mi-	16c#\	-mi-	16f#\	-mi-	16a\	-mi-	.	.
.	.	.	.	16F#\	-ni	16c#\	-ni	16f#\	-ni	16a\	-ni	.	.
8D#X\	6 5	8a/	8ff#\	8r	.	8r	.	8r	.	8r	.	.	.
8BB\J	.	8a/J	8ee\J	16BB/	ex-	16B\	ex-	16f#\	ex-	16a\	ex-	.	.
.	.	.	.	16BB/	-qui-	16B\	-qui-	16f#\	-qui-	16a\	-qui-	.	.
=7	=7	=7	=7	=7	=7	=7	=7	=7	=7	=7	=7	=7	=7
8E\L	4 9	8a/L	8ff#\L	8E\	-si-	8B\	-si-	8f#\	-si-	8a\	-si-	.	.
8E\	3 8	8g#/	8ee\	8E\	-ta	8B\	-ta	8e\	-ta	8g#\	-ta	.	.
8G#\	6	8b/	8ee\	8r	.	8r	.	8r	.	8r	.	.	.
8E\J	.	8b/J	8gg#\J	8E\	in	8e\	in	8g#\	in	8b\	in	.	.
!	!	!LO:LB:g=original	!	!	!	!	!	!	!	!	!	!	!
8A\L	6	8cc#\L	8ee\L	8A\	om-	8c#\	om-	8e\	om-	8cc#\	om-	.	.
8G#\	.	8b\	8ee\	8G#\	-nes	8e\	-nes	8g#\	-nes	8b\	-nes	.	.
8A\	.	8cc#\	8ee\	8A\	vo-	8c#\	vo-	8e\	vo-	8cc#\	vo-	.	.
8F#\J	6\	8dd#X\J	8aa\J	8F#\	-lun-	8A\	-lun-	8a\	-lun-	8dd#X\	-lun-	.	.
!	!	!	!	!LO:LB:g=original	!	!LO:PB:g=original	!	!	!	!LO:PB:g=original	!	!	!
=8	=8	=8	=8	=8	=8	=8	=8	=8	=8	=8	=8	=8	=8
!LO:TX:t=P:problem:mixed beam	!	!	!	!	!	!	!	!	!	!	!	!	!
8G#/L	6	8ee\L	8gg#\L	8G#\	-ta-	8B\	-ta-	8g#\	-ta-	8ee\	-ta-	.	.
8A/	6 5	8cc#\J	16ff#\L	8A\	-tes	8c#\	-tes	8f#\	-tes	8ff#\	-tes	.	.
.	.	.	16ee\JJ	.	.	.	.	.	.	.	.	.	.
!	!	!	!	!LO:TX:t=P:problem:mixed beam	!	!	!	!	!	!	!	!	!
8B/	.	4a/	4dd#Xt\	8B/L	e-	4B\	e-	4f#\	e-	4dd#X\	e-	.	.
8BB\J	#	.	.	8BB\J	.	.	.	.	.	.	.	.	.
!	!	!	!LO:LB:g=original	!	!	!	!	!LO:LB:g=original	!	!	!	!	!
4E\	.	8b/L	8ee\L	4E\	-jus	4B\	-jus	4g#\	-jus	4ee\	-jus	.	.
.	.	8f#/	8ee\	.	.	.	.	.	.	.	.	.	.
4r	.	8a/	8ff#\	4r	.	4r	.	8r	.	4r	.	.	.
.	.	8f#/J	8dd#X\J	.	.	.	.	8B/	con-	.	.	.	.
=9	=9	=9	=9	=9	=9	=9	=9	=9	=9	=9	=9	=9	=9
4r	.	4g#/	4ee\	00r	.	00r	.	8e\	-feſ-	00r	.	.	.
.	.	.	.	.	.	.	.	16f#\	-si-	.	.	.	.
.	.	.	.	.	.	.	.	16f#\	-o	.	.	.	.
!LO:TX:a:t=salto	!	!	!	!	!	!	!	!	!	!	!	!	!
8E\L	.	8ee\L	8gg#\L	.	.	.	.	8g#\	et	.	.	.	.
8F#\J	.	8dd#X\J	8aa\J	.	.	.	.	8a\	ma-	.	.	.	.
!LO:LB:g=original	!	!	!	!	!	!	!	!	!	!	!	!	!
!LO:TX:t=P:problem:mixed beam	!	!	!	!	!	!	!	!	!	!	!	!	!
8G#\L	.	8ee\L	8bb\L	.	.	.	.	4b\	-gni-	.	.	.	.
8E\	.	8ee\	8gg#\	.	.	.	.	.	.	.	.	.	.
8A\	.	8cc#\	8ee\	.	.	.	.	4cc#\	-fi-	.	.	.	.
8AA/J	.	8cc#\J	8ee\J	.	.	.	.	.	.	.	.	.	.
=10	=10	=10	=10	=10	=10	=10	=10	=10	=10	=10	=10	=10	=10
8G#\L	.	4b/	4ee\	.	.	.	.	8.b\	-cen-	.	.	0r	0r
8F#\	6	.	.	.	.	.	.	.	.	.	.	.	.
.	.	.	.	.	.	.	.	16e\	-ti-	.	.	.	.
!	!	!	!	!	!	!	!	!LO:N:vis=8	!	!	!	!	!
8G#\	.	8r	8r	.	.	.	.	4e\	-a	.	.	.	.
8E\J	.	8b/	8ee\	.	.	.	.	.	.	.	.	.	.
8F#\L	.	4b/	4ee\	.	.	.	.	8b\L	o-	.	.	.	.
8E\	7	.	.	.	.	.	.	8a\J	.	.	.	.	.
8F#\	.	8r	8r	.	.	.	.	8g#\	-pus	.	.	.	.
8BB\J	7 #	8f#/	8dd#X\	.	.	.	.	8a\	e-	.	.	.	.
=11	=11	=11	=11	=11	=11	=11	=11	=11	=11	=11	=11	=11	=11
8E\L	.	8g#/L	4ee\	.	.	.	.	4g#\	-jus	.	.	.	.
8F#\	.	8a/	.	.	.	.	.	.	.	.	.	.	.
8G#\	.	8b/	8r	.	.	.	.	8r	.	.	.	.	.
8F#\J	.	8a/J	8ee\	.	.	.	.	16g#\	et	.	.	.	.
.	.	.	.	.	.	.	.	16g#\	jus-	.	.	.	.
!	!	!	!	!	!	!	!	!LO:LB:g=original	!	!	!	!	!
4E\	.	4g#/	4ee\	.	.	.	.	8g#\	-ti-	.	.	.	.
.	.	.	.	.	.	.	.	16a\	-ti-	.	.	.	.
.	.	.	.	.	.	.	.	16g#\	-a	.	.	.	.
8r	.	8r	8r	.	.	.	.	8f#\	e-	.	.	.	.
8Dn\	4 2	8g#/	8ee\	.	.	.	.	8e\	-jus	.	.	.	.
!	!	!LO:LB:g=original	!	!	!	!	!	!	!	!	!	!	!
=12	=12	=12	=12	=12	=12	=12	=12	=12	=12	=12	=12	=12	=12
8C#\L	6	4a/	4ee\	.	.	.	.	4a\	ma-	.	.	1r	1r
8BB\	.	.	.	.	.	.	.	.	.	.	.	.	.
8C#\	.	4r	4r	.	.	.	.	8A/	-net	.	.	.	.
8C#/J	.	.	.	.	.	.	.	8a\	in	.	.	.	.
!LO:TX:t=P:problem:mixed beam	!	!	!	!	!	!	!	!	!	!	!	!	!
8D\L	.	2r	2r	.	.	.	.	8a\	sae-	.	.	.	.
8BB\	.	.	.	.	.	.	.	16b\	-cu-	.	.	.	.
.	.	.	.	.	.	.	.	16a\	-lum	.	.	.	.
8E\	.	.	.	.	.	.	.	8.g#\	sae-	.	.	.	.
8EE\J	.	.	.	.	.	.	.	.	.	.	.	.	.
.	.	.	.	.	.	.	.	16a\	-cu-	.	.	.	.
!	!	!	!LO:LB:g=original	!	!	!	!	!	!	!	!	!	!
=13	=13	=13	=13	=13	=13	=13	=13	=13	=13	=13	=13	=13	=13
!LO:TX:a:t=Tut	!	!	!	!	!	!	!	!	!	!	!	!	!
4AA/	.	8r	2r	2r	.	2r	.	8a\	-li	8r	.	8r	8r
.	.	8a/L	.	.	.	.	.	8a\	me-	8a\	me-	8c#/L	8a\L
4r	.	8a/	.	.	.	.	.	8a\	-mo-	8a\	-mo-	8c#/	8a\
.	.	8b/J	.	.	.	.	.	16g#\	-ri-	16b\	-ri-	8e/J	8b\J
.	.	.	.	.	.	.	.	16g#\	-am	16b\	-am	.	.
8AA/L	.	8cc#\L	8aa\L	8A\	Fe-	8e\	fe-	8a\	fe-	8cc#\	fe-	8a\L	8cc#\L
8BB/	.	8dd\	8gg#\	8B\	-cit	8d\	-cit	8g#\	-cit	8dd\	-cit	8b\	8dd\
!	!	!	!	!	!	!	!	!LO:LB:g=original	!	!	!	!	!
8C#/	.	8ee\	8aa\	8c#\	mi-	8c#\	mi-	8a\	mi-	8ee\	mi-	8cc#\	8ee\
8D/J	.	8ff#\J	8aa\J	8d\	-ra-	8A\	-ra-	8g#\	-ra-	8ff#\	-ra-	8dd\J	8ff#\J
!LO:LB:g=original	!	!	!	!	!	!	!	!	!	!	!	!	!
=14	=14	=14	=14	=14	=14	=14	=14	=14	=14	=14	=14	=14	=14
!	!	!	!LO:TX:t=P:problem:mixed beam	!	!	!	!	!	!	!	!	!LO:TX:t=P:problem:mixed beam	!
8C#/L	6	8ee\L	8aa\L	8c#\	-bi-	8A\	-bi-	8.a\	-bi-	8.ee\	-bi-	8cc#\L	8ee\L
8BB/	.	8dd\	8a/	8B\	-li-	8d\	-li-	.	.	.	.	8c#/	8a\
.	.	.	.	.	.	.	.	16a\	-li-	16a\	-li-	.	.
8C#/	.	8ee\	8a/	8c#\	-um	8e\	-um	8a\	-um	8a\	-um	8c#/	8a\
8AA/J	.	8cc#\J	8aa\J	8A\	su-	8c#\	su-	8a\	su-	8ee\	su-	8cc#\J	8ee\J
!	!	!	!	!	!	!	!	!	!	!LO:LB:g=original	!	!	!
8BB/L	-	8dd\L	8ff#\L	8B\	-o-	8B\	-o-	8f#\	-o-	8dd\	-o-	8b\L	8dd\L
8AA/	6 5	8cc#\	8ff#\	16A\	-rum	16B\	-rum	16f#\	-rum	16cc#\	-rum	8a\	8cc#\
.	.	.	.	16A\	mi-	16B\	mi-	16f#\	mi-	16cc#\	mi-	.	.
8GG#/	.	8dd\	8ee\	8G#\	-se-	8B\	-se-	8e\	-se-	8dd\	-se-	8b\	8dd\
8EE/J	.	8b\J	8ee\J	8E\	-ri-	8B\	-ri-	8e\	-ri-	8ee\	-ri-	8cc#\J	8ee\J
!	!	!	!	!LO:LB:g=original	!	!LO:LB:g=original	!	!	!	!	!	!	!
=15	=15	=15	=15	=15	=15	=15	=15	=15	=15	=15	=15	=15	=15
4AA/	.	8a/L	8cc#\L	8AA/	-cors	8A\	-cors	8e\	-cors	8cc#\	-cors	8a\L	8cc#\L
.	.	8cc#/	8ee\	8AA/	et	8c#\	et	8e\	et	8ee\	et	8cc#\	8ee\
8r	.	8b/	8dd\	8C#/	mi-	8B\	mi-	8e\	mi-	8dd\	mi-	8b\	8dd\
8A\	.	8a/J	8cc#\J	8A\	-se-	8c#\	-se-	8e\	-se-	8cc#\	-se-	8a\J	8cc#\J
!	!	!	!	!	!	!	!	!	!	!	!	!LO:LB:g=original	!LO:LB:g=original
8B\L	n	8f#/L	8dd\L	8B\	-ra-	8B\	-ra-	8a\	-ra-	8dd\	-ra-	8b\L	8dd\L
8A\	.	8f#/	8cc#\	8A\	-tor	8B\	-tor	8f#\	-tor	8cc#\	-tor	8a\	8cc#\
8G#\	6 5	8e/	8dd\	8G#\	Do-	8.B\	Do-	8.e\	Do-	8.dd\	Do-	8b\	8dd\
8F#\J	.	8f#/J	8ee\J	8E\	-mi-	.	.	.	.	.	.	8cc#\J	8ee\J
.	.	.	.	.	.	16B\	-mi-	16e\	-mi-	16ee\	-mi-	.	.
!	!	!	!	!	!	!	!	!LO:LB:g=original	!	!	!	!	!
=16	=16	=16	=16	=16	=16	=16	=16	=16	=16	=16	=16	=16	=16
4A\	.	8a/	4cc#\	4A\	-nus	4A\	-ni	4e\	-nus	8cc#\	-nus	4a\	4cc#\
.	.	4a/	.	.	.	.	.	.	.	4a\	es-	.	.
8r	.	.	8r	8r	.	8r	.	8r	.	.	.	4c#/	4a\
8C#/	6	8a/	8ee\	16C#/	es-	16A\	es-	8e\	es-	8a\	-cam	.	.
.	.	.	.	16C#/	-cam	16A\	-cam	.	.	.	.	.	.
!	!	!LO:LB:g=original	!	!	!	!	!	!	!	!	!	!LO:TX:t=P:problem:mixed beam	!
8D/L	6	8f#/L	8b/L	8D/L	de-	8F#/L	de-	8f#\	-cum	8b\L	de-	8e/L	8b\L
8C#/	6	8e/J	8a/J	8C#/J	.	8A/J	.	8e\	de-	8a\J	.	8c#/	8a\
8BB/	-	8b\L	8dd\L	8BB/	-dit	8B\	-dit	8f#\	-dit	8dd\	-dit	8b\	8dd\
8AA/J	6	8dd\J	8bb\J	8GG#/	ti-	8B\	ti-	8e\	ti-	8b\	ti-	8e/J	8b\J
=17	=17	=17	=17	=17	=17	=17	=17	=17	=17	=17	=17	=17	=17
!LO:TX:t=P:problem:mixed beam	!	!	!	!LO:TX:t=P:problem:mixed beam	!	!	!	!	!	!	!	!	!
8AA/L	.	8cc#\L	8aa\L	8AA/L	-men-	(4A\	-men-	8e\L	-men-	8cc#\L	-men-	8e/L	8cc#\L
8F#\J	3	8cc#\	8aa\	8F#\J	.	.	.	8f#\J	.	8a\J	.	8c#/J	8a\J
!	!	!	!	!	!	!	!	!	!	!LO:LB:g=original	!	!	!
8D\L	6 5	8dd\	8bb\	8D\	-ti-	8d\	-ti-	8f#\	-ti-	8b\	.	4e/	4b\
8E\J	.	8b\J	8gg#\J	16E\	-bus	16B\)	-bus	16e\	-bus	16g#\	-tu-	.	.
.	.	.	.	16E\	se	16B\	se	16f#\	.	16g#\	-bus	.	.
!	!	!	!LO:LB:g=original	!	!	!	!	!	!	!	!	!	!
*	*	*	*	*	*ij	*	*	*	*	*	*	*	*
4AA/	.	4cc#\	4aa\	8AA/	se	4c#\	.	4e\	se	4a\	se.	4c#/	4a\
*	*	*	*	*	*Xij	*	*	*	*	*	*	*	*
!	!	!	!	!	!LO:LB:g=original	!	!	!	!	!	!	!	!
.	.	.	.	8A\L	me-	.	.	.	.	.	.	.	.
!	!	!	!	!	!	!LO:LB:g=original	!	!	!	!	!	!	!
8r	.	4r	4r	8B\J	.	4r	.	4r	.	4r	.	4r	4r
8Gn\	4 2	.	.	8c#\	-mor	.	.	.	.	.	.	.	.
!LO:LB:g=original	!	!	!	!	!	!	!	!	!	!	!	!	!
=18	=18	=18	=18	=18	=18	=18	=18	=18	=18	=18	=18	=18	=18
!LO:TX:a:t=B Sol	!	!	!	!	!	!	!	!	!	!	!	!	!
8F#\L	6	00r	1r	8d\	e-	00r	.	00r	.	00r	.	00r	00r
8E\	.	.	.	8D/	-rit	.	.	.	.	.	.	.	.
8F#\	.	.	.	8r	.	.	.	.	.	.	.	.	.
8D\J	.	.	.	8A\	in	.	.	.	.	.	.	.	.
8E\L	-	.	.	8Gn\	sae-	.	.	.	.	.	.	.	.
8D\	.	.	.	16F#\	-cu-	.	.	.	.	.	.	.	.
.	.	.	.	16F#\	-lum	.	.	.	.	.	.	.	.
8C#\	5	.	.	8G\	tes-	.	.	.	.	.	.	.	.
8AA\J	6	.	.	8A\	-ta-	.	.	.	.	.	.	.	.
=19	=19	=19	=19	=19	=19	=19	=19	=19	=19	=19	=19	=19	=19
!LO:TX:t=P:problem:mixed beam	!	!	!	!	!	!	!	!	!	!	!	!	!
8D/L	.	.	4r	8F#\	-men-	.	.	.	.	.	.	.	.
8Gn/	.	.	.	8E\	-ti	.	.	.	.	.	.	.	.
8A/	.	.	8dd\L	4E\	su-	.	.	.	.	.	.	.	.
8AA\J	.	.	8cc#\J	.	.	.	.	.	.	.	.	.	.
8D\L	.	.	4dd\	8D\	-i	.	.	.	.	.	.	.	.
8F#\	.	.	.	8A\	vir-	.	.	.	.	.	.	.	.
8Gn\	.	.	8dd\L	8B\	-tu-	.	.	.	.	.	.	.	.
8E\J	6\	.	8cc#\J	8Gn\	-tem	.	.	.	.	.	.	.	.
=20	=20	=20	=20	=20	=20	=20	=20	=20	=20	=20	=20	=20	=20
8F#\L	6	.	4d/	8.A\	o-	.	.	.	.	.	.	.	.
8E\	.	.	.	.	.	.	.	.	.	.	.	.	.
.	.	.	.	16D/	-pe-	.	.	.	.	.	.	.	.
8F#\	.	.	4r	8D/	-rum	.	.	.	.	.	.	.	.
!	!	!	!	!LO:LB:g=original	!	!	!	!	!	!	!	!	!
8D\J	.	.	.	8A\	su-	.	.	.	.	.	.	.	.
4E\	-	.	4r	8Gn\	-o-	.	.	.	.	.	.	.	.
.	.	.	.	16A\	-rum	.	.	.	.	.	.	.	.
.	.	.	.	16B\	a-	.	.	.	.	.	.	.	.
8r	.	.	8r	8A\	-nun-	.	.	.	.	.	.	.	.
8AA/	7	.	8cc#\	8G\	-ti-	.	.	.	.	.	.	.	.
=21	=21	=21	=21	=21	=21	=21	=21	=21	=21	=21	=21	=21	=21
4D\	.	.	4dd\	8F#\	-a-	.	.	.	.	.	.	.	.
.	.	.	.	8A\	-bit	.	.	.	.	.	.	.	.
8r	.	.	8r	4.d\	po-	.	.	.	.	.	.	.	.
8F#\	.	.	8dd\	.	.	.	.	.	.	.	.	.	.
!LO:TX:t=P:problem:mixed beam	!	!	!	!	!	!	!	!	!	!	!	!	!
8Gn\L	.	.	8dd\L	.	.	.	.	.	.	.	.	.	.
8E\	.	.	8dd\	16E\	-pu-	.	.	.	.	.	.	.	.
.	.	.	.	16E\	-lo	.	.	.	.	.	.	.	.
8A\	5 4	.	8dd\	4E\	su-	.	.	.	.	.	.	.	.
8AA/J	3	.	8cc#\J	.	.	.	.	.	.	.	.	.	.
=22	=22	=22	=22	=22	=22	=22	=22	=22	=22	=22	=22	=22	=22
4D\	.	16dd\LL	16dd\LL	4D/	-o	2r	.	4r	.	4r	.	00r	00r
.	.	16a\	16a\	.	.	.	.	.	.	.	.	.	.
.	.	16b\	16b\	.	.	.	.	.	.	.	.	.	.
.	.	16cc#\JJ	16cc#\JJ	.	.	.	.	.	.	.	.	.	.
4r	.	8dd\L	8dd\L	4r	.	.	.	8d\	ut	8dd\	ut	.	.
.	.	8cc#\	8ee\	.	.	.	.	8e\	det	8cc#\	et	.	.
!LO:LB:g=original	!	!	!	!	!	!LO:TX:a:t=Solo	!	!	!	!	!	!	!
8D\L	.	8dd\	8ff#\	(8D\L	hae-	8A/L	hae-	8f#\	il-	8dd\	il-	.	.
8E\	.	8dd\J	8ggn\J	8E\J)	.	8Gn/J	.	16gn\	-lis	16dd\	-lis	.	.
.	.	.	.	.	.	.	.	16g\	hae-	16dd\	hae-	.	.
!	!	!	!LO:LB:g=original	!	!	!	!	!LO:LB:g=original	!	!	!	!	!
8F#\	.	8ee\L	8aa\L	8F#\	-re-	8F#/	-re-	8a\	-re-	8dd\	-re-	.	.
8Gn\J	.	8dd\J	8bb\J	8Gn\	-di-	8D/	-di-	8b\	-di-	8dd\	-di-	.	.
=23	=23	=23	=23	=23	=23	=23	=23	=23	=23	=23	=23	=23	=23
!LO:TX:t=P:problem:mixed beam	!	!	!	!	!	!	!	!	!	!	!	!	!
8A\L	6	8dd\L	8aa\L	8F#\	-ta-	8F#/	-ta-	8a\	-ta-	8dd\	-ta-	.	.
8AA/J	.	8aa\	8ee\	8F#\	-tem	8d\	-tem	8d\	-tem	8dd\	-tem	.	.
8r	.	8aa\	8ee\	8F#\	gen-	8A\	gen-	8d\	gen-	8dd\	gen-	.	.
!	!	!	!	!LO:LB:g=original	!	!	!	!	!	!	!	!	!
8F#\	.	8dd\J	8aa\J	16F#\	-ti-	16A\	-ti-	16a\	-ti-	16dd\	-ti-	.	.
.	.	.	.	16F#\	-um	16d\	-um	16a\	-um	16dd\	-um	.	.
8E\L	-	8ee\L	8gg#\L	8E\	o-	8B\	o-	8gn\	o-	8ee\	o-	.	.
8D\	.	8ff#\	8ff#\	16D/	-pe-	16B\	-pe-	16f#\	-pe-	16ff#\	-pe-	.	.
.	.	.	.	16D/	-ra	16B\	-ra	16f#\	-ra	16ee\	-ra	.	.
!	!	!	!	!	!	!	!	!	!	!LO:LB:g=original	!	!	!
8C#\	6 5	8ee\	8gg#\	8C#/	ma-	8A\	ma-	8g\	ma-	8ee\	ma-	.	.
8AA\J	7	8ee\J	8aa\J	16BB/	-nu-	16A\	-nu-	16a\	-nu-	16ee\	-nu-	.	.
.	.	.	.	16AA/	-um	16A\	-um	16a\	-um	16ee\	-um	.	.
=24	=24	=24	=24	=24	=24	=24	=24	=24	=24	=24	=24	=24	=24
8D\L	.	8a\L	8ff#\L	8D\	e-	8A\	e-	8f#\	e-	8dd\	e-	.	.
8E\	6\	8cc#\	8gg#\	8E\	-jus	8A\	-jus	8gn\	-jus	8cc#\	-jus	.	.
8F#\	6	8dd\	8aa\	8F#\	ve-	8A\	ve-	8a\	ve-	8dd\	ve-	.	.
!	!	!	!	!	!	!LO:LB:g=original	!	!	!	!	!	!	!
8E\J	6\	8cc#\J	8gg#\J	16E\	-ri-	16A\	-ri-	16gn\	-ri-	16cc#\	-ri-	.	.
.	.	.	.	16E\	-tus	16A\	-tas	16g\	-tas	16cc#\	-tas	.	.
!	!	!LO:LB:g=original	!	!	!	!	!	!	!	!	!	!	!
8D\L	.	8dd\L	8ff#\L	(8D\	et	8A\	et	8f#\	et	8dd\	et	.	.
8E\	6\	8cc#\	8gg#\	8E\)	ju-	8A\	ju-	8gn\	ju-	8cc#\	ju-	.	.
!	!	!	!	!	!	!	!	!LO:LB:g=original	!	!	!	!	!
8F#\	6	8dd\	8aa\	8F#\L	.	4A\	-di-	8a\L	-di-	8dd\L	-di-	.	.
8E\J	6\	8cc#\J	8gg#\J	8E\J	.	.	.	8gn\J	.	8cc#\J	.	.	.
=25	=25	=25	=25	=25	=25	=25	=25	=25	=25	=25	=25	=25	=25
!LO:TX:t=P:problem:mixed beam	!	!	!	!	!	!	!	!	!	!	!	!	!
8D\L	.	8dd\L	8ff#\L	8D\L	-di-	8A\L	-ci-	8f#\L	.	4.dd\	.	.	.
8Gn\	.	8dd\	8ee\	8Gn\	.	8B\J	.	8e\J	.	.	.	.	.
8A\	.	8.dd\	8.ee\	8A\J	.	8.A\	.	8.e\	-ci-	.	.	.	.
8AA/J	43	.	.	8AA/	-ci-	.	.	.	.	8cc#\	-ci-	.	.
.	.	16cc#\Jk	16dd\Jk	.	.	16A\	-um	16d\	-um	.	.	.	.
!LO:TX:a:t=Solo	!	!LO:TX:t=P:problem:mixed beam	!LO:TX:t=P:problem:mixed beam	!	!	!	!	!	!	!	!	!	!
8D\L	.	8dd\L	8dd\L	4D/	-um	8A\	.	4d\	.	8dd\	-um	.	.
!	!	!	!	!	!	!	!	!	!	!LO:TX:a:t=Solo	!	!	!
8D\	.	8d/	8d/	.	.	8d\	fi-	.	.	8ff#\	fi-	.	.
!	!	!	!	!LO:LB:g=original	!	!	!	!	!	!	!	!	!
8F#\	.	8f#/	8f#/	4r	.	8d\	-de-	4r	.	8ff#\	-de-	.	.
8D\J	.	8d/J	8d/J	.	.	16d\	-li-	.	.	16ff#\	-li-	.	.
.	.	.	.	.	.	16d\	-a	.	.	16ff#\	-a	.	.
!	!	!	!	!	!	!	!	!	!	!LO:LB:g=original	!	!	!
=26	=26	=26	=26	=26	=26	=26	=26	=26	=26	=26	=26	=26	=26
8A\L	.	8a/L	8a/L	00r	.	8.d\	om-	00r	.	8.ee\	om-	00r	00r
8A\	43	8A/	8A/	.	.	.	.	.	.	.	.	.	.
.	.	.	.	.	.	16c#\	-ni-	.	.	16ee\	-ni-	.	.
8c#\	.	8A/	8A/	.	.	8c#\	-a	.	.	8ee\	-a	.	.
8A\J	.	8a/J	8a/J	.	.	8c#\	man-	.	.	8ee\	man-	.	.
!LO:LB:g=original	!	!	!LO:LB:g=original	!	!	!	!	!	!	!	!	!	!
8B\L	.	8b/L	8b/L	.	.	8B\	-da-	.	.	8ee\	-da-	.	.
8A\	.	8a/	8a/	.	.	8B\	-ta	.	.	8dd\	-ta	.	.
8G#X\	6 5	8g#X/	8g#X/	.	.	4B\	e-	.	.	4dd\	e-	.	.
8E\J	7	8e/J	8e/J	.	.	.	.	.	.	.	.	.	.
!	!	!	!	!	!	!LO:LB:g=original	!	!	!	!	!	!	!
=27	=27	=27	=27	=27	=27	=27	=27	=27	=27	=27	=27	=27	=27
!LO:TX:t=P:problem:mixed beam	!	!	!	!	!	!	!	!	!	!	!	!	!
8A\L	.	8a/L	8a/L	.	.	4A\	-jus	.	.	4cc#\	-jus	.	.
8AA/J	.	8A/J	8A/J	.	.	.	.	.	.	.	.	.	.
4r	.	4r	4r	.	.	8A/	con-	.	.	8a\	con-	.	.
.	.	.	.	.	.	8G#X/	-fir-	.	.	16cc#\LL	-fir-	.	.
.	.	.	.	.	.	.	.	.	.	16b\JJ	.	.	.
8A\L	.	2r	2r	.	.	8A/	-ma-	.	.	8cc#\	-ma-	.	.
8B\	.	.	.	.	.	16A/	-ta	.	.	16dd\	-ta	.	.
.	.	.	.	.	.	16A/	in	.	.	16dd\	in	.	.
8c#\	.	.	.	.	.	16A/	sae-	.	.	8ee\	sae-	.	.
.	.	.	.	.	.	16A/	-cu-	.	.	.	.	.	.
8d\J	.	.	.	.	.	8A/	-la	.	.	16ff#\	-cu-	.	.
.	.	.	.	.	.	.	.	.	.	16ff#\	-lu(m)	.	.
=28	=28	=28	=28	=28	=28	=28	=28	=28	=28	=28	=28	=28	=28
8c#\L	.	00r	00r	.	.	8A\	sae-	.	.	8ee\	sae-	.	.
16c#\L	6	.	.	.	.	16A\	-cu-	.	.	16a\	-cu-	.	.
16B\JJ	.	.	.	.	.	16A\	-li	.	.	16a\	-li	.	.
4A\	.	.	.	.	.	8r	.	.	.	8r	.	.	.
.	.	.	.	.	.	16A/LL	fac-	.	.	16a\LL	fac-	.	.
.	.	.	.	.	.	16G#X/JJ	.	.	.	16b\JJ	.	.	.
!	!	!	!	!	!	!	!	!	!	!LO:LB:g=original	!	!	!
4r	.	.	.	.	.	8A\	-ta	.	.	8cc#\	-ta	.	.
.	.	.	.	.	.	8B\	in	.	.	8dd\	in	.	.
8r	.	.	.	.	.	8c#\	ve-	.	.	8ee\	ve-	.	.
8D\	.	.	.	.	.	8d\	-ri-	.	.	8ff#\	-ri-	.	.
=29	=29	=29	=29	=29	=29	=29	=29	=29	=29	=29	=29	=29	=29
4A\	.	.	.	.	.	4c#\	-ta-	.	.	4ee\	-ta-	.	.
8r	.	.	.	.	.	8c#\	-te	.	.	8a\	-te	.	.
8D/	.	.	.	.	.	8d\	et	.	.	8ff#\	et	.	.
!	!	!	!	!	!	!LO:LB:g=original	!	!	!	!	!	!	!
8AA/L	.	.	.	.	.	8c#\	ae-	.	.	8ee\	ae-	.	.
8D/J	.	.	.	.	.	8B\	-qui-	.	.	8a\	-qui-	.	.
!LO:TX:t=P:problem:mixed beam	!	!	!	!	!	!	!	!	!	!	!	!	!
8E\L	.	.	.	.	.	4B\	-ta-	.	.	4g#\	-ta-	.	.
8EE/J	.	.	.	.	.	.	.	.	.	.	.	.	.
=30	=30	=30	=30	=30	=30	=30	=30	=30	=30	=30	=30	=30	=30
!LO:TX:t=P:problem:mixed beam	!	!	!	!	!	!	!	!	!	!	!	!	!
8A\L	.	.	.	8r	.	4A\	-te	8r	.	4a\	-te	00r	00r
8AA/	.	.	.	8A\	Re-	.	.	8a\	Re-	.	.	.	.
8C#/	.	.	.	8A\	-dem-	4r	.	8a\	-dem-	4r	.	.	.
8AA/J	.	.	.	8A\	-pti-	.	.	8a\	-pti-	.	.	.	.
!LO:TX:t=P:problem:mixed beam	!	!	!	!	!	!	!	!	!	!	!	!	!
8D\L	56	.	.	8A\	-o-	2r	.	8b\	-o-	2r	.	.	.
8BB\	.	.	.	8A\	-nem	.	.	8b\	-nem	.	.	.	.
8E\	.	.	.	8G#X\	mi-	.	.	8b\	mi-	.	.	.	.
8EE/J	.	.	.	8G#\	-sit	.	.	16a\LL	-sit	.	.	.	.
.	.	.	.	.	.	.	.	16b\JJ	.	.	.	.	.
!LO:LB:g=original	!	!	!	!	!	!	!	!	!	!	!	!	!
=31	=31	=31	=31	=31	=31	=31	=31	=31	=31	=31	=31	=31	=31
8AA/L	.	.	.	8.A\	Do-	0r	.	8.cc#\	Do-	0r	.	.	.
8BB/	.	.	.	.	.	.	.	.	.	.	.	.	.
.	.	.	.	16A\	-mi-	.	.	16b\	-mi-	.	.	.	.
8C#/	.	.	.	8A\	-nus	.	.	8a\	-nus	.	.	.	.
!	!	!	!	!	!	!	!	!LO:LB:g=original	!	!	!	!	!
8C#/J	.	.	.	8C#/L	po-	.	.	4a\	po-	.	.	.	.
!LO:TX:t=P:problem:mixed beam	!	!	!	!	!	!	!	!	!	!	!	!	!
8D\L	5	.	.	8D/J	.	.	.	.	.	.	.	.	.
8BB\	6	.	.	16BB/	-pu-	.	.	16b\	-pu-	.	.	.	.
.	.	.	.	16BB/	-lo	.	.	16a\	-lo	.	.	.	.
8E\	.	.	.	4E\	su-	.	.	4g#\	su-	.	.	.	.
8EE\J	.	.	.	.	.	.	.	.	.	.	.	.	.
=32	=32	=32	=32	=32	=32	=32	=32	=32	=32	=32	=32	=32	=32
!LO:TX:t=P:problem:mixed beam	!	!	!	!	!	!	!	!	!	!	!	!	!
8AA/L	.	00r	00r	4A\	-o	.	.	4a\	-o	.	.	.	.
16A\L	.	.	.	.	.	.	.	.	.	.	.	.	.
16B\JJ	.	.	.	.	.	.	.	.	.	.	.	.	.
8c#\L	.	.	.	8r	.	.	.	8r	.	.	.	.	.
8A\J	.	.	.	8c#\	man-	.	.	8e\	man-	.	.	.	.
8D\L	.	.	.	8d\	-da-	.	.	8f#\	-da-	.	.	.	.
!	!	!	!	!LO:LB:g=original	!	!	!	!	!	!	!	!	!
8D\	.	.	.	8d\	-vit	.	.	8f#\	-vit	.	.	.	.
8E\	8 6	.	.	8c#\	in	.	.	8e\	in	.	.	.	.
8E\J	7 4	.	.	8B\	ae-	.	.	8d\	ae-	.	.	.	.
=33	=33	=33	=33	=33	=33	=33	=33	=33	=33	=33	=33	=33	=33
8AA/L	.	.	.	8A\	-ter-	1r	.	8c#\	-ter-	1r	.	.	.
8BB/	.	.	.	8A\	-num	.	.	8e\	-num	.	.	.	.
8C#/	.	.	.	8C#/	tes-	.	.	8a\	tes-	.	.	.	.
8D/J	.	.	.	8D/	-ta-	.	.	8b\	-ta-	.	.	.	.
!LO:TX:t=P:problem:mixed beam	!	!	!	!	!	!	!	!	!	!	!	!	!
8E\L	.	.	.	8E/	-men-	.	.	8g#\	-men-	.	.	.	.
8BB\	.	.	.	8AA/	-tu(m)	.	.	8a\	-tu(m)	.	.	.	.
8E\	.	.	.	4E\	su-	.	.	4g#X\	su-	.	.	.	.
8EE/J	.	.	.	.	.	.	.	.	.	.	.	.	.
=34	=34	=34	=34	=34	=34	=34	=34	=34	=34	=34	=34	=34	=34
!LO:TX:t=P:problem:mixed beam	!	!	!	!	!	!	!	!	!	!	!	!	!
8AA/L	.	.	.	4AA/	-um	8r	.	4a\	-um	8r	.	00r	00r
!	!	!	!	!	!	!LO:TX:a:t=Solo	!	!	!	!	!	!	!
8A\	.	.	.	.	.	4A\	San-	.	.	4a\	San-	.	.
8c#\	.	.	.	4r	.	.	.	4r	.	.	.	.	.
8A\J	.	.	.	.	.	8A\	-ctum	.	.	8a\	-ctum	.	.
!LO:TX:t=P:problem:mixed beam	!	!	!	!	!	!	!	!LO:LB:g=original	!	!	!	!	!
8D\L	5	.	.	2r	.	8A\	et	2r	.	8b\	et	.	.
8BB\	6	.	.	.	.	8A\	ter-	.	.	8b\	ter-	.	.
!	!	!	!	!	!	!	!	!	!	!LO:LB:g=original	!	!	!
8E\	.	.	.	.	.	8G#/	-ri-	.	.	8b\	-ri-	.	.
8EE\J	.	.	.	.	.	16G#/	-bi-	.	.	16a\	-bi-	.	.
.	.	.	.	.	.	16G#/	-le	.	.	16b\	-le	.	.
!LO:LB:g=original	!	!	!	!	!	!	!	!	!	!	!	!	!
=35	=35	=35	=35	=35	=35	=35	=35	=35	=35	=35	=35	=35	=35
8AA/L	.	.	.	0r	.	8A/	no-	2r	.	8cc#\	no-	.	.
8D/	.	.	.	.	.	8A/	-men	.	.	8b\	-men	.	.
8E/	.	.	.	.	.	8A/L	e-	.	.	4b\	e-	.	.
8EE/J	.	.	.	.	.	8G#/J	.	.	.	.	.	.	.
4AA/	.	.	.	.	.	4A/	-jus	8r	.	8a\	-jus	.	.
.	.	.	.	.	.	.	.	8a\	i-	8cc#\	i-	.	.
8r	.	.	.	.	.	4r	.	8a\	-ni-	8cc#\	-ni-	.	.
8A\	.	.	.	.	.	.	.	16a\	-ti-	16cc#\	-ti-	.	.
.	.	.	.	.	.	.	.	16a\	-um	16cc#\	-um	.	.
!	!	!	!	!	!	!LO:LB:g=original	!	!	!	!	!	!	!
=36	=36	=36	=36	=36	=36	=36	=36	=36	=36	=36	=36	=36	=36
8E\L	4	00r	00r	.	.	1r	.	8.a\	Sa-	8.b\	Sa-	.	.
8E\	3	.	.	.	.	.	.	.	.	.	.	.	.
.	.	.	.	.	.	.	.	16g#\	-pi-	16b\	-pi-	.	.
8F#\	.	.	.	.	.	.	.	8.f#\	-en-	8.a\	-en-	.	.
8D#X\J	6	.	.	.	.	.	.	.	.	.	.	.	.
.	.	.	.	.	.	.	.	16f#\	-ti-	16a\	-ti	.	.
4E\	.	.	.	.	.	.	.	8e\	-ae	8g#\	et	.	.
.	.	.	.	.	.	.	.	8f#\L	ti-	8a\L	ti-	.	.
8r	.	.	.	.	.	.	.	8g#\J	.	8b\J	.	.	.
8B\	#7	.	.	.	.	.	.	8f#\	-mor	8a\	-mor	.	.
!	!	!	!	!	!	!	!	!	!	!LO:LB:g=original	!	!	!
=37	=37	=37	=37	=37	=37	=37	=37	=37	=37	=37	=37	=37	=37
!LO:TX:t=P:problem:mixed beam	!	!	!	!	!	!	!	!	!	!	!	!	!
8E\L	.	.	.	2r	.	2r	.	4.e\	Do-	8g#/L	Do-	.	.
8A\	.	.	.	.	.	.	.	.	.	8f#/J	.	.	.
8B\	#	.	.	.	.	.	.	.	.	8.f#/	.	.	.
8BB/J	.	.	.	.	.	.	.	8d#X\	-mi-	.	.	.	.
.	.	.	.	.	.	.	.	.	.	16e/	-mi-	.	.
8E\L	.	.	.	4r	.	4r	.	4e\	-ni	4e/	-ni	.	.
8F#\	.	.	.	.	.	.	.	.	.	.	.	.	.
8G#\	.	.	.	8r	.	8r	.	4r	.	4r	.	.	.
!	!	!	!	!	!	!LO:TX:a:t=Solo	!	!	!	!	!	!	!
8E\J	.	.	.	16G#\	in-	16B\	in-	.	.	.	.	.	.
.	.	.	.	16G#\	-tel-	16B\	-tel-	.	.	.	.	.	.
=38	=38	=38	=38	=38	=38	=38	=38	=38	=38	=38	=38	=38	=38
8E\L	6 4	.	.	8A\	-lec-	8c#\	-lec-	00r	.	00r	.	00r	00r
8E\	3	.	.	8G#\	-tus	8B\	-tus	.	.	.	.	.	.
8E\	7 3	.	.	8B\	bo-	8d\	bo-	.	.	.	.	.	.
8E\J	6 4	.	.	8A\	-nus	8c#\	-nus	.	.	.	.	.	.
!	!	!	!	!LO:LB:g=original	!	!	!	!	!	!	!	!	!
8E\L	.	.	.	8.G#\	om-	8.B\	om-	.	.	.	.	.	.
8F#\	.	.	.	.	.	.	.	.	.	.	.	.	.
.	.	.	.	16G#\	-ni-	16E/	-ni-	.	.	.	.	.	.
8G#\	.	.	.	8G#\	-bus	8E/	-bus	.	.	.	.	.	.
8E\J	.	.	.	16G#\	fa-	16e\	fa-	.	.	.	.	.	.
.	.	.	.	16G#\	-ci-	16e\	-ci-	.	.	.	.	.	.
=39	=39	=39	=39	=39	=39	=39	=39	=39	=39	=39	=39	=39	=39
4AA/	.	.	.	8c#\	-en-	8e\	-en-	.	.	.	.	.	.
.	.	.	.	16B\	-ti-	16d\	-ti-	.	.	.	.	.	.
.	.	.	.	16A\	-bus	16c#\	-bus	.	.	.	.	.	.
8G#\L	5	.	.	4B\	e-	8.d\L	e-	.	.	.	.	.	.
8E\J	-	.	.	.	.	.	.	.	.	.	.	.	.
.	.	.	.	.	.	16e\Jk	.	.	.	.	.	.	.
!LO:LB:g=original	!	!	!	!	!	!	!	!	!	!	!	!	!
!LO:TX:t=P:problem:mixed beam	!	!	!	!	!	!LO:LB:g=original	!	!	!	!	!	!	!
8A\L	.	.	.	4A\	-um	4c#\	-um	.	.	.	.	.	.
8AA/	.	.	.	.	.	.	.	.	.	.	.	.	.
8C#/	.	.	.	8r	.	8r	.	.	.	.	.	.	.
8AA/J	.	.	.	8A\	lau-	8e\	lau-	.	.	.	.	.	.
=40	=40	=40	=40	=40	=40	=40	=40	=40	=40	=40	=40	=40	=40
4AA/	.	0r	0r	8A\	-da-	8c#\	-da-	.	.	.	.	.	.
.	.	.	.	16B\	-ti-	16d\	-ti-	.	.	.	.	.	.
.	.	.	.	16c#\	-o	16e\	-o	.	.	.	.	.	.
4C#/	6	.	.	8E\	e-	8A\	e-	.	.	.	.	.	.
.	.	.	.	8E\	-jus	8c#\	-jus	.	.	.	.	.	.
4D/	.	.	.	8D/	ma-	4d\	ma-	.	.	.	.	.	.
.	.	.	.	8D/	-net	.	.	.	.	.	.	.	.
8r	.	.	.	8r	.	8d\	-net	.	.	.	.	.	.
8BB/	.	.	.	8B\	in	8d\	in	.	.	.	.	.	.
!	!	!	!	!LO:LB:g=original	!	!	!	!	!	!	!	!	!
=41	=41	=41	=41	=41	=41	=41	=41	=41	=41	=41	=41	=41	=41
!LO:TX:t=P:problem:mixed beam	!	!	!	!	!	!	!	!	!	!	!	!	!
8C#\L	.	.	.	8A\	sae-	8c#\	sae-	.	.	.	.	.	.
8D\	.	.	.	16A\	-cu-	16B\	-cu-	.	.	.	.	.	.
.	.	.	.	16A\	-lum	16A\	-lum	.	.	.	.	.	.
8E\	.	.	.	8.A\	sae-	8.G#/	sae-	.	.	.	.	.	.
8EE/J	.	.	.	.	.	.	.	.	.	.	.	.	.
.	.	.	.	16G#\	-cu-	16A/	-cu-	.	.	.	.	.	.
4AA/	.	.	.	4A\	-li	4A/	-li	.	.	.	.	.	.
4r	.	.	.	4r	.	4r	.	.	.	.	.	.	.
!	!	!LO:LB:g=original	!	!	!	!	!	!LO:LB:g=original	!	!	!	!	!
==42	==42	==42	==42	==42	==42	==42	==42	==42	==42	==42	==42	==42	==42
*M3/4	*	*M3/4	*M3/4	*M3/4	*	*M3/4	*	*M3/4	*	*M3/4	*	*M3/4	*M3/4
!LO:TX:b:t=Gloria	!	!	!	!	!	!	!	!	!	!	!	!	!
!LO:TX:a:t=adagio	!	!LO:TX:a:t=Gloria Tacet	!LO:TX:a:t=Gloria Tacet	!LO:TX:a:t=Gloria\nTacet	!	!LO:TX:a:t=Gloria \nTacet	!	!LO:TX:a:t=adagio	!	!LO:TX:a:t=adagio	!	!LO:TX:a:t=Gloria Patri\nTacet	!LO:TX:a:t=Gloria Patri\nTacet
4E\	.	2.ryy	2.ryy	2.ryy	.	2.ryy	.	4g#\	Glo-	4b\	Glo-	2.ryy	2.ryy
4E\	.	.	.	.	.	.	.	4e\	-ri-	4g#\	-ri-	.	.
4E\	4 2	.	.	.	.	.	.	4f#\	-a	4a\	-a	.	.
=43	=43	=43	=43	=43	=43	=43	=43	=43	=43	=43	=43	=43	=43
4E\	5 3	2.ryy	2.ryy	2.ryy	.	2.ryy	.	8g#\L	Pa-	8b\L	Pa-	2.ryy	2.ryy
.	.	.	.	.	.	.	.	8f#\J	.	8a\J	.	.	.
4E\	.	.	.	.	.	.	.	4f#\	-tri	4b\	-tri	.	.
4E\	.	.	.	.	.	.	.	4r	.	4r	.	.	.
=44	=44	=44	=44	=44	=44	=44	=44	=44	=44	=44	=44	=44	=44
4B\	7 #	2.ryy	2.ryy	2.ryy	.	2.ryy	.	4f#\	glo-	4a\	glo-	2.ryy	2.ryy
4B\	.	.	.	.	.	.	.	4d#X\	-ri-	4f#/	-ri-	.	.
4B\	.	.	.	.	.	.	.	4e\	-a	4g#/	-a	.	.
=45	=45	=45	=45	=45	=45	=45	=45	=45	=45	=45	=45	=45	=45
4B\	.	2.ryy	2.ryy	2.ryy	.	2.ryy	.	8f#\	Fi-	8a\	Fi-	2.ryy	2.ryy
.	.	.	.	.	.	.	.	8e\	-li-	8g#\	-li-	.	.
4BB/	7	.	.	.	.	.	.	4f#\	-o	4a\	-o	.	.
4BB/	.	.	.	.	.	.	.	4r	.	4r	.	.	.
!LO:LB:g=original	!	!	!	!	!	!	!	!	!	!LO:LB:g=original	!	!	!
=46	=46	=46	=46	=46	=46	=46	=46	=46	=46	=46	=46	=46	=46
4E\	.	2.ryy	2.ryy	2.ryy	.	2.ryy	.	4.e\	et	(4.g#\	et	2.ryy	2.ryy
4E\	.	.	.	.	.	.	.	.	.	.	.	.	.
.	.	.	.	.	.	.	.	(8f#\	Spi-	8a\)	.	.	.
4E\	.	.	.	.	.	.	.	8g#\L)	.	8b\L	Spi-	.	.
.	.	.	.	.	.	.	.	8e\J	.	8g#\J	.	.	.
=47	=47	=47	=47	=47	=47	=47	=47	=47	=47	=47	=47	=47	=47
4AA/	.	2.ryy	2.ryy	2.ryy	.	2.ryy	.	4.a\	-ri-	4.cc#\	-ri-	2.ryy	2.ryy
4r	.	.	.	.	.	.	.	.	.	.	.	.	.
.	.	.	.	.	.	.	.	8g#\	-tu-	8b\	-tu-	.	.
4AA/	65	.	.	.	.	.	.	8f#\L	-i	8a\L	-i	.	.
.	.	.	.	.	.	.	.	8e\J	.	8g#\J	.	.	.
!	!	!	!	!	!	!	!	!LO:LB:g=original	!	!	!	!	!
=48	=48	=48	=48	=48	=48	=48	=48	=48	=48	=48	=48	=48	=48
4BB/	.	2.ryy	2.ryy	2.ryy	.	2.ryy	.	2d#X\	San-	2f#/	San-	2.ryy	2.ryy
4BB/	#	.	.	.	.	.	.	.	.	.	.	.	.
4BB/	.	.	.	.	.	.	.	4e\	.	4g#/	.	.	.
=49	=49	=49	=49	=49	=49	=49	=49	=49	=49	=49	=49	=49	=49
4BB/	5 #	2.ryy	2.ryy	2.ryy	.	2.ryy	.	2e\	.	8g#/L	.	2.ryy	2.ryy
.	.	.	.	.	.	.	.	.	.	8f#/J	.	.	.
4B\	#	.	.	.	.	.	.	.	.	2f#/	.	.	.
4BB/	.	.	.	.	.	.	.	4d#X\	.	.	.	.	.
=50	=50	=50	=50	=50	=50	=50	=50	=50	=50	=50	=50	=50	=50
2.E\	.	2.ryy	2.ryy	2.ryy	.	2.ryy	.	2.e\	-cto.	2.e/	-cto.	2.ryy	2.ryy
!	!	!	!LO:LB:g=original	!LO:LB:g=original	!	!LO:LB:g=original	!	!	!	!LO:LB:g=original	!	!LO:LB:g=original	!LO:LB:g=original
=51||	=51||	=51||	=51||	=51||	=51||	=51||	=51||	=51||	=51||	=51||	=51||	=51||	=51||
*	*	*clefG2	*	*	*	*	*	*	*	*	*	*	*
*	*	*k[f#c#g#]	*	*	*	*	*	*	*	*	*	*	*
*M2/2	*	*M2/2	*M2/2	*M2/2	*	*M2/2	*	*M2/2	*	*M2/2	*	*M2/2	*M2/2
*met(c|)	*	*met(c|)	*met(c|)	*met(c|)	*	*met(c|)	*	*met(c|)	*	*met(c|)	*	*met(c|)	*met(c|)
*2\right	*	*	*	*	*	*	*	*	*	*	*	*	*
!LO:TX:b:t=Sicut erat	!	!LO:TX:b:t=Sicut erat	!LO:TX:b:t=Sicut erat	!	!	!	!	!	!	!	!	!LO:TX:b:t=Sicut erat	!LO:TX:b:t=Sicut erat in principio
2A\	.	2r	2r	1r	.	2r	.	2r	.	2r	.	2r	2r
2r	.	4cc#\	4a/	.	.	4c#\	Si-	4e\	Si-	4a\	Si-	4c#/	4a\
.	.	4b\	4b/	.	.	4B\	-cut	4g#\	-cut	4b\	.	4e/	4b\
=52	=52	=52	=52	=52	=52	=52	=52	=52	=52	=52	=52	=52	=52
4A\	.	4a/	4cc#\	4A\	Si-	4A\	e-	4e\	e-	4cc#\	-cut	4a\	4cc#\
4B\	.	4a/	4dd\	4B\	-cut	4A\	-rat	4g#\	-rat	4dd\	e-	4b\	4dd\
4c#\	6	4a/	4ee\	8c#\	e-	4A\	in	4e\	in	4ee\	-rat	4cc#\	4ee\
.	.	.	.	8c#\	-rat	.	.	.	.	.	.	.	.
4d\	.	4a/	4ff#\	8d\	in	4A\	prin-	4d\	prin-	4ff#\	in	4dd\	4ff#\
.	.	.	.	8d\	prin-	.	.	.	.	.	.	.	.
=53	=53	=53	=53	=53	=53	=53	=53	=53	=53	=53	=53	=53	=53
4c#\	.	4a/	4.ee\	4c#\	-ci-	4A\	-ci-	4e\	-ci-	4.ee\	prin-	4cc#\	4ee\
4B\	6	4dd\	.	4B\	-pi-	4d\	-pi-	4g#\	-pi-	.	.	4c#/	4a\
.	.	.	8a/	.	.	.	.	.	.	8a\	-ci-	.	.
4c#\	.	4cc#\	4a/	4c#\	-o	4c#\	-o	4a\	-o	4a\	-pi-	4c#/	4a\
4A\	.	4cc#\	4ee\	4A\	et	4c#\	et	4a\	et	4ee\	-o	4cc#\	4ee\
!LO:LB:g=original	!	!LO:LB:g=original	!	!	!	!	!	!	!	!	!	!	!
=54	=54	=54	=54	=54	=54	=54	=54	=54	=54	=54	=54	=54	=54
4B\	63	4f#/	4dd\	(4B\	nunc	4d\	nunc	2f#\	nunc	(4dd\	et	4b\	4dd\
4A\	.	4f#/	4cc#\	4A\)	.	4e\	.	.	.	4cc#\)	.	4a\	4cc#\
4G#\	6	4e/	4dd\	(4G#\	et	4d\	et	2e\	et	(4dd\	nunc	4b\	4dd\
4E\	6	4g#/	4ee\	4E\)	.	4d\	.	.	.	4ee\)	.	4cc#\	4ee\
!	!	!	!	!	!	!	!	!LO:LB:g=original	!	!	!	!	!
=55	=55	=55	=55	=55	=55	=55	=55	=55	=55	=55	=55	=55	=55
4A\	.	4e/	4cc#\	4A\	sem-	4c#\	sem-	4e\	sem-	4cc#\	et	4a\	4cc#\
8A\L	.	8c#/L	2a/	4A\	-per	4c#\	-per	4e\	-per	4a\	.	4c#/	4a\
8B\J	.	8e/J	.	.	.	.	.	.	.	.	.	.	.
4c#\	.	4e/	.	4r	.	4r	.	4r	.	4r	.	4r	4r
4B\	.	8e/L	8a/L	8c#\	et	8c#\	et	8e\	et	8a\	sem-	8c#/L	8a\L
.	.	8d/J	8b/J	8B\	in	8d\	in	8e\	in	8b\	-per	8e/J	8b\J
=56	=56	=56	=56	=56	=56	=56	=56	=56	=56	=56	=56	=56	=56
4A\	.	4e/	4cc#\	4A\	sae-	4e\	sae-	4a\	sae-	4cc#\	et	4a\	4cc#\
4B\	6\	4g#/	4dd\	8B\	-cu-	8d\	-cu-	8g#\	-cu-	8dd\	in	4b\	4dd\
.	.	.	.	8B\	-la	8d\	-la	8g#\	-la	8dd\	sae-	.	.
!	!	!	!	!	!	!LO:LB:g=original	!	!	!	!	!	!	!
4c#\	.	4e/	4ee\	4c#\	sae-	4c#\	sae-	4e\	sae-	4ee\	-cu-	4cc#\	4ee\
4d\	.	4a/	4ff#\	4d\	-cu-	4A\	-cu-	4d\	-cu-	4ff#\	-la	4dd\	4ff#\
!	!	!	!LO:LB:g=original	!LO:LB:g=original	!	!	!	!	!	!LO:LB:g=original	!	!LO:LB:g=original	!
=57	=57	=57	=57	=57	=57	=57	=57	=57	=57	=57	=57	=57	=57
4c#\	.	4a/	4ee\	4c#\	-lo-	4A\	-lo-	4e\	-lo-	4ee\	sae-	4cc#\	4ee\
8c#\L	.	8ee\L	2a/	4c#\	-rum	4A\	-rum	4e\	-rum	4a\	-cu-	4c#/	4a\
8B\J	.	8dd\J	.	.	.	.	.	.	.	.	.	.	.
4c#\	.	4ee\	.	4r	.	4r	.	4r	.	4r	.	4r	4r
!	!	!	!	!	!	!	!	!	!	!	!	!	!LO:LB:g=original
4A\	.	4cc#\	4ee\	4A\	a-	(4c#\	a-	4e\	a-	(4a\	-lo-	4c#/	4a\
=58	=58	=58	=58	=58	=58	=58	=58	=58	=58	=58	=58	=58	=58
4d\	6	4f#/	4b\	4d\	.	4B\)	.	4f#\	.	4b\)	.	4e/	4b\
4d\	.	4e/	4a\	4c#\	.	4c#\	-men	4e\	.	4a\	-rum	4c#/	4a\
4d\	.	4f#/	4b\	4d\	.	4B\	a-	4f#\	.	4b\	e-	4e/	4b\
8c#\L	.	8e/L	4a/	8c#\L	.	(8c#\L	.	8e\L	.	4a\	.	4c#/	4a\
8d\J	.	8f#/J	.	8d\J	.	8B\J)	.	8f#\J	.	.	.	.	.
=59	=59	=59	=59	=59	=59	=59	=59	=59	=59	=59	=59	=59	=59
*	*	*	*	*	*	*2\right	*	*	*	*	*	*	*2\right
4e\	.	4e/	2a/	4e\	.	2A\	-men	1e	.	2f#/	.	2.e/	2.b\
4d\	.	4f#/	.	4d\	.	.	.	.	.	.	.	.	.
4e\	.	2e/	2g#/	4e\	.	2B\	a-	.	.	2g#/	.	.	.
4E\	.	.	.	4E\	.	.	.	.	.	.	.	4e/	4b\
!	!	!	!	!	!	!	!	!LO:LB:g=original	!	!	!	!	!
=60	=60	=60	=60	=60	=60	=60	=60	=60	=60	=60	=60	=60	=60
*	*	*	*	*	*	*	*	*	*	*2\right	*	*2\right	*
2A\	.	1e	1a	1A	-men.	2c#\	-men.	2e\	-men:	2a\	-men.	2a\	2cc#\
2r	.	.	.	.	.	2r	.	2r	.	2r	.	2r	2ryy
!	!	!	!	!	!	!	!	!	!	!	!	!LO:TX:a:t=Beatus Tacet	!
==	==	==	==	==	==	==	==	==	==	==	==	==	==
*-	*-	*-	*-	*-	*-	*-	*-	*-	*-	*-	*-	*-	*-
!!!system-decoration: [(s1,s2)][(s3,s4,s5,s6)][(s7,s8)][(s9)]
!!!ENC: Andrzej Gręziak
!!!END: 2024-05-14
!!!ENC: Leszek Kubiak
!!!END: 2024-08-06
